production/img/svg/soc.svg

<svg xmlns="http://www.w3.org/2000/svg" preserveAspectRatio="xMidYMid" width="132" height="18" viewBox="0 0 132 18"><defs><style>.cls-2 { fill: #2c343a; }</style></defs><path d="M130.104 8.449c.523.567.786 1.329.786 2.287 0 .701-.133 1.317-.399 1.851-.264.53-.621.967-1.069 1.316-.53.415-1.114.711-1.752.889-.634.177-1.438.264-2.418.264h-5.721v-14.108h5.06c1.034 0 1.818.04 2.352.12.536.077 1.036.242 1.501.494.505.273.884.639 1.131 1.091.248.455.377.98.377 1.574 0 .689-.173 1.3-.517 1.837-.345.539-.818.934-1.424 1.188v.074c.871.184 1.568.557 2.093 1.123zm-3.927-4.212c-.115-.238-.296-.414-.547-.52-.234-.104-.506-.159-.826-.169-.322-.008-.798-.012-1.428-.012h-.246v2.985h.447c.604 0 1.029-.007 1.273-.019.243-.014.497-.078.755-.196.281-.132.479-.319.584-.551.109-.237.164-.508.164-.816 0-.228-.059-.461-.176-.702zm.799 5.411c-.177-.25-.444-.432-.798-.557-.212-.087-.509-.131-.884-.141-.375-.01-.88-.014-1.509-.014h-.655v3.533h.191c.922 0 1.559-.005 1.911-.02.353-.013.716-.097 1.081-.255.322-.141.556-.343.706-.609.147-.269.22-.575.22-.914 0-.436-.085-.776-.263-1.023zm-54.715-4.038l.012.508c0 5.187-3.951 11.171-11.173 11.171-2.217 0-4.282-.65-6.019-1.765.307.037.619.055.936.055 1.841 0 3.534-.627 4.877-1.68-1.718-.031-3.168-1.168-3.669-2.727.241.046.487.071.74.071.358 0 .705-.048 1.034-.138-1.796-.362-3.149-1.947-3.149-3.851v-.049c.53.294 1.134.471 1.778.491-1.054-.705-1.746-1.906-1.746-3.268 0-.72.193-1.394.531-1.975 1.937 2.376 4.831 3.939 8.094 4.103-.067-.288-.102-.587-.102-.895 0-2.168 1.758-3.926 3.927-3.926 1.129 0 2.149.476 2.865 1.24.894-.176 1.735-.503 2.494-.952-.293.916-.916 1.685-1.727 2.172.795-.096 1.551-.306 2.256-.619-.526.788-1.191 1.48-1.959 2.034zm-66.631-1.345l-.005 1.704h2.764l-.331 3.033h-2.433v9.004h-4.062v-9.004h-1.577v-3.033h1.577v-1.932c0-2.533 1.051-4.037 4.037-4.037h3.025v3.022h-1.757c-1.162 0-1.238.433-1.238 1.243z" id="path-1" class="cls-2" fill-rule="evenodd"/></svg>

<svg xmlns="http://www.w3.org/2000/svg" xmlns:xlink="http://www.w3.org/1999/xlink" preserveAspectRatio="xMidYMid" width="132" height="18" viewBox="0 0 132 18">
  <defs>
    <style>

      .cls-2 {
        fill: #2c343a;
      }
    </style>
  </defs>
  <path d="M130.104,8.449 C130.627,9.016 130.890,9.778 130.890,10.736 C130.890,11.437 130.757,12.053 130.491,12.587 C130.227,13.117 129.870,13.554 129.422,13.903 C128.892,14.318 128.308,14.614 127.670,14.792 C127.036,14.969 126.232,15.056 125.252,15.056 C125.252,15.056 119.531,15.056 119.531,15.056 C119.531,15.056 119.531,0.948 119.531,0.948 C119.531,0.948 124.591,0.948 124.591,0.948 C125.625,0.948 126.409,0.988 126.943,1.068 C127.479,1.145 127.979,1.310 128.444,1.562 C128.949,1.835 129.328,2.201 129.575,2.653 C129.823,3.108 129.952,3.633 129.952,4.227 C129.952,4.916 129.779,5.527 129.435,6.064 C129.090,6.603 128.617,6.998 128.011,7.252 C128.011,7.252 128.011,7.326 128.011,7.326 C128.882,7.510 129.579,7.883 130.104,8.449 ZM126.177,4.237 C126.062,3.999 125.881,3.823 125.630,3.717 C125.396,3.613 125.124,3.558 124.804,3.548 C124.482,3.540 124.006,3.536 123.376,3.536 C123.376,3.536 123.130,3.536 123.130,3.536 C123.130,3.536 123.130,6.521 123.130,6.521 C123.130,6.521 123.577,6.521 123.577,6.521 C124.181,6.521 124.606,6.514 124.850,6.502 C125.093,6.488 125.347,6.424 125.605,6.306 C125.886,6.174 126.084,5.987 126.189,5.755 C126.298,5.518 126.353,5.247 126.353,4.939 C126.353,4.711 126.294,4.478 126.177,4.237 ZM126.976,9.648 C126.799,9.398 126.532,9.216 126.178,9.091 C125.966,9.004 125.669,8.960 125.294,8.950 C124.919,8.940 124.414,8.936 123.785,8.936 C123.785,8.936 123.130,8.936 123.130,8.936 C123.130,8.936 123.130,12.469 123.130,12.469 C123.130,12.469 123.321,12.469 123.321,12.469 C124.243,12.469 124.880,12.464 125.232,12.449 C125.585,12.436 125.948,12.352 126.313,12.194 C126.635,12.053 126.869,11.851 127.019,11.585 C127.166,11.316 127.239,11.010 127.239,10.671 C127.239,10.235 127.154,9.895 126.976,9.648 ZM72.261,5.610 C72.268,5.777 72.273,5.947 72.273,6.118 C72.273,11.305 68.322,17.289 61.100,17.289 C58.883,17.289 56.818,16.639 55.081,15.524 C55.388,15.561 55.700,15.579 56.017,15.579 C57.858,15.579 59.551,14.952 60.894,13.899 C59.176,13.868 57.726,12.731 57.225,11.172 C57.466,11.218 57.712,11.243 57.965,11.243 C58.323,11.243 58.670,11.195 58.999,11.105 C57.203,10.743 55.850,9.158 55.850,7.254 C55.850,7.238 55.850,7.221 55.850,7.205 C56.380,7.499 56.984,7.676 57.628,7.696 C56.574,6.991 55.882,5.790 55.882,4.428 C55.882,3.708 56.075,3.034 56.413,2.453 C58.350,4.829 61.244,6.392 64.507,6.556 C64.440,6.268 64.405,5.969 64.405,5.661 C64.405,3.493 66.163,1.735 68.332,1.735 C69.461,1.735 70.481,2.211 71.197,2.975 C72.091,2.799 72.932,2.472 73.691,2.023 C73.398,2.939 72.775,3.708 71.964,4.195 C72.759,4.099 73.515,3.889 74.220,3.576 C73.694,4.364 73.029,5.056 72.261,5.610 ZM5.630,4.265 C5.630,4.265 5.625,5.969 5.625,5.969 C5.625,5.969 8.389,5.969 8.389,5.969 C8.389,5.969 8.058,9.002 8.058,9.002 C8.058,9.002 5.625,9.002 5.625,9.002 C5.625,9.002 5.625,18.006 5.625,18.006 C5.625,18.006 1.563,18.006 1.563,18.006 C1.563,18.006 1.563,9.002 1.563,9.002 C1.563,9.002 -0.014,9.002 -0.014,9.002 C-0.014,9.002 -0.014,5.969 -0.014,5.969 C-0.014,5.969 1.563,5.969 1.563,5.969 C1.563,5.969 1.563,4.037 1.563,4.037 C1.563,1.504 2.614,-0.000 5.600,-0.000 C5.600,-0.000 8.625,-0.000 8.625,-0.000 C8.625,-0.000 8.625,3.022 8.625,3.022 C8.625,3.022 6.868,3.022 6.868,3.022 C5.706,3.022 5.630,3.455 5.630,4.265 Z" id="path-1" class="cls-2" fill-rule="evenodd"/>
</svg>
